dist/images/biddingGeneric.svg

<?xml version="1.0" encoding="UTF-8"?>
<svg width="60px" height="60px" viewBox="0 0 120 120" version="1.1" xmlns="http://www.w3.org/2000/svg" xmlns:xlink="http://www.w3.org/1999/xlink">
    <!-- Generator: Sketch 40.3 (33839) - http://www.bohemiancoding.com/sketch -->
    <title>Page-1</title>
    <desc>Created with Sketch.</desc>
    <defs></defs>
    <g id="Page-1" stroke="none" stroke-width="3" fill="none" fill-rule="evenodd">
        <g transform="translate(2.000000, 2.000000)">
            <circle id="outline-oval-3" stroke="#898989" stroke-width="3" cx="60" cy="60" r="56"></circle>
            <circle id="outline-oval-2" stroke="#ACACAC" stroke-width="3" cx="58.5" cy="58.5" r="56.5"></circle>
            <circle id="outline-oval-1" stroke="#F9F9F9" stroke-width="3" cx="56.5" cy="56.5" r="56.5"></circle>
            <g id="bottom" transform="translate(21.000000, 70.000000)">
                <g id="bottom-3" transform="translate(5.000000, 5.000000)" stroke="#898989">
                    <rect id="path-31" x="0" y="10" width="66" height="11" rx="4"></rect>
                    <rect id="path-33" x="11" y="0" width="42" height="11" rx="3"></rect>
                </g>
                <g id="bottom-2" transform="translate(3.000000, 3.000000)" stroke="#ACACAC">
                    <rect id="path-35" x="0" y="10" width="66" height="11" rx="4"></rect>
                    <rect id="path-37" x="11" y="0" width="42" height="11" rx="3"></rect>
                </g>
                <g id="bottom-1" stroke="#F9F9F9">
                    <rect id="path-39" x="0" y="10" width="66" height="11" rx="4"></rect>
                    <rect id="path-41" x="11" y="0" width="42" height="11" rx="3"></rect>
                </g>
            </g>
            <g id="hammer-path" transform="translate(26.000000, 12.000000)" stroke-width="3">
                <g id="hammer-path-3" transform="translate(3.000000, 5.000000)" stroke="#898989">
                <animateTransform attributeName="transform" attributeType="XML" type="rotate"
      from="-5 70 60" to="-5 70 60"  dur="1s" begin="1s" values="-5 70 60; 5 70 60; -5 70 60" keyTimes="0; 0.65; 1" repeatCount="indefinite" fill="freeze"/>
                    <path d="M31.9156218,15.7538056 C31.9156218,15.7538056 35.1334686,17.0620095 36.9946346,13.0298181 C38.8558006,8.99762665 35.9589836,6.53888596 35.9589836,6.53888596 L21.0135834,0.666543742 C21.0135834,0.666543742 16.1291603,-1.65929743 14.3296464,3.65111829 C12.5301324,8.96153402 15.4091345,9.4930181 15.4091345,9.4930181 L31.9156218,15.7538056 Z" id="hammer-up"></path>
                    <polygon id="hammer-middle" points="16.2588789 9.30163541 30.9566407 15.6376126 21.3657518 39.2978698 6.94536898 33.2060526"></polygon>
                    <path d="M1.73927159,37.1061168 C3.86103544,31.858251 5.86980751,33.1113942 5.86980751,33.1113942 L22.8797036,40.1071302 C22.8797036,40.1071302 24.2946575,42.0115849 22.8797036,45.4303686 C21.4647496,48.8491522 18.8868762,50.3656159 18.8868762,50.3656159 L1.73927159,43.311499 C1.73927159,43.311499 -0.382492258,42.3539826 1.73927159,37.1061168 Z" id="hammer-down"></path>
                    <polygon id="handler-up" points="27.2042191 25.335356 25.591213 28.7054271 49.8799449 38.4338626 51.7449148 33.698861"></polygon>
                    <path d="M51.1068677,35.9438269 L53.3637217,33.2567997 L78.9303618,41.7944275 C78.9303618,41.7944275 80.6891015,45.1105003 79.9637463,46.9212262 C79.238391,48.731952 76.3305756,50.1614196 76.3305756,50.1614196 L50.4619484,39.7405108 L51.1068677,35.9438269 Z" id="handler-down"></path>
                </g>
                <g id="hammer-path-2" transform="translate(2.000000, 2.000000)" stroke="#ACACAC">
                <animateTransform attributeName="transform" attributeType="XML" type="rotate"
      from="-5 70 60" to="10 70 60"  dur="1s" begin="1s" values="-5 70 60; 10 70 60; -5 70 60" keyTimes="0; 0.65; 1" repeatCount="indefinite" fill="freeze"/>
                    <path d="M31.9156218,15.7538056 C31.9156218,15.7538056 35.1334686,17.0620095 36.9946346,13.0298181 C38.8558006,8.99762665 35.9589836,6.53888596 35.9589836,6.53888596 L21.0135834,0.666543742 C21.0135834,0.666543742 16.1291603,-1.65929743 14.3296464,3.65111829 C12.5301324,8.96153402 15.4091345,9.4930181 15.4091345,9.4930181 L31.9156218,15.7538056 Z" id="hammer-up"></path>
                    <polygon id="hammer-middle" points="16.2588789 9.30163541 30.9566407 15.6376126 21.3657518 39.2978698 6.94536898 33.2060526"></polygon>
                    <path d="M1.73927159,37.1061168 C3.86103544,31.858251 5.86980751,33.1113942 5.86980751,33.1113942 L22.8797036,40.1071302 C22.8797036,40.1071302 24.2946575,42.0115849 22.8797036,45.4303686 C21.4647496,48.8491522 18.8868762,50.3656159 18.8868762,50.3656159 L1.73927159,43.311499 C1.73927159,43.311499 -0.382492258,42.3539826 1.73927159,37.1061168 Z" id="hammer-down"></path>
                    <polygon id="handler-up" points="27.2042191 25.335356 25.591213 28.7054271 49.8799449 38.4338626 51.7449148 33.698861"></polygon>
                    <path d="M51.1068677,35.9438269 L53.3637217,33.2567997 L78.9303618,41.7944275 C78.9303618,41.7944275 80.6891015,45.1105003 79.9637463,46.9212262 C79.238391,48.731952 76.3305756,50.1614196 76.3305756,50.1614196 L50.4619484,39.7405108 L51.1068677,35.9438269 Z" id="handler-down"></path>
                </g>
                <g id="hammer-path-1" stroke="#F9F9F9">
                <animateTransform attributeName="transform" attributeType="XML" type="rotate"
      from="-5 70 60" to="15 70 60"  dur="1s" begin="1s" values="-5 70 60; 15 70 60; -5 70 60" keyTimes="0; 0.65; 1" repeatCount="indefinite" fill="freeze"/>
                    <path d="M31.9156218,15.7538056 C31.9156218,15.7538056 35.1334686,17.0620095 36.9946346,13.0298181 C38.8558006,8.99762665 35.9589836,6.53888596 35.9589836,6.53888596 L21.0135834,0.666543742 C21.0135834,0.666543742 16.1291603,-1.65929743 14.3296464,3.65111829 C12.5301324,8.96153402 15.4091345,9.4930181 15.4091345,9.4930181 L31.9156218,15.7538056 Z" id="hammer-up"></path>
                    <polygon id="hammer-middle" points="16.2588789 9.30163541 30.9566407 15.6376126 21.3657518 39.2978698 6.94536898 33.2060526"></polygon>
                    <path d="M1.73927159,37.1061168 C3.86103544,31.858251 5.86980751,33.1113942 5.86980751,33.1113942 L22.8797036,40.1071302 C22.8797036,40.1071302 24.2946575,42.0115849 22.8797036,45.4303686 C21.4647496,48.8491522 18.8868762,50.3656159 18.8868762,50.3656159 L1.73927159,43.311499 C1.73927159,43.311499 -0.382492258,42.3539826 1.73927159,37.1061168 Z" id="hammer-down"></path>
                    <polygon id="handler-up" points="27.2042191 25.335356 25.591213 28.7054271 49.8799449 38.4338626 51.7449148 33.698861"></polygon>
                    <path d="M51.1068677,35.9438269 L53.3637217,33.2567997 L78.9303618,41.7944275 C78.9303618,41.7944275 80.6891015,45.1105003 79.9637463,46.9212262 C79.238391,48.731952 76.3305756,50.1614196 76.3305756,50.1614196 L50.4619484,39.7405108 L51.1068677,35.9438269 Z" id="handler-down"></path>
                </g>
            </g>
        </g>
    </g>
</svg>

<svg width="60" height="60" viewBox="0 0 120 120" xmlns="http://www.w3.org/2000/svg"><title>Page-1</title><g transform="translate(2 2)" stroke-width="3" fill="none" fill-rule="evenodd"><circle stroke="#898989" cx="60" cy="60" r="56"/><circle stroke="#ACACAC" cx="58.5" cy="58.5" r="56.5"/><circle stroke="#F9F9F9" cx="56.5" cy="56.5" r="56.5"/><g transform="translate(26 75)" stroke="#898989"><rect y="10" width="66" height="11" rx="4"/><rect x="11" width="42" height="11" rx="3"/></g><g transform="translate(24 73)" stroke="#ACACAC"><rect y="10" width="66" height="11" rx="4"/><rect x="11" width="42" height="11" rx="3"/></g><g stroke="#F9F9F9" transform="translate(21 70)"><rect y="10" width="66" height="11" rx="4"/><rect x="11" width="42" height="11" rx="3"/></g><g transform="translate(29 17)" stroke="#898989"><animateTransform attributeName="transform" attributeType="XML" type="rotate" from="-5 70 60" to="-5 70 60" dur="1s" begin="1s" values="-5 70 60; 5 70 60; -5 70 60" keyTimes="0; 0.65; 1" repeatCount="indefinite" fill="freeze"/><path d="M31.916 15.754s3.217 1.308 5.079-2.724c1.86-4.032-1.036-6.491-1.036-6.491L21.014.667S16.129-1.66 14.33 3.65c-1.8 5.31 1.08 5.842 1.08 5.842l16.506 6.26z"/><path d="M16.259 9.302l14.698 6.336-9.591 23.66-14.42-6.092zM1.74 37.106c2.121-5.248 4.13-3.995 4.13-3.995l17.01 6.996s1.415 1.905 0 5.323c-1.415 3.42-3.993 4.936-3.993 4.936L1.739 43.31s-2.121-.957 0-6.205z"/><path d="M27.204 25.335l-1.613 3.37 24.289 9.729 1.865-4.735zm23.903 10.609l2.257-2.687 25.566 8.537s1.76 3.317 1.034 5.127c-.726 1.811-3.633 3.24-3.633 3.24l-25.87-10.42.646-3.797z"/></g><g transform="translate(28 14)" stroke="#ACACAC"><animateTransform attributeName="transform" attributeType="XML" type="rotate" from="-5 70 60" to="10 70 60" dur="1s" begin="1s" values="-5 70 60; 10 70 60; -5 70 60" keyTimes="0; 0.65; 1" repeatCount="indefinite" fill="freeze"/><path d="M31.916 15.754s3.217 1.308 5.079-2.724c1.86-4.032-1.036-6.491-1.036-6.491L21.014.667S16.129-1.66 14.33 3.65c-1.8 5.31 1.08 5.842 1.08 5.842l16.506 6.26z"/><path d="M16.259 9.302l14.698 6.336-9.591 23.66-14.42-6.092zM1.74 37.106c2.121-5.248 4.13-3.995 4.13-3.995l17.01 6.996s1.415 1.905 0 5.323c-1.415 3.42-3.993 4.936-3.993 4.936L1.739 43.31s-2.121-.957 0-6.205z"/><path d="M27.204 25.335l-1.613 3.37 24.289 9.729 1.865-4.735zm23.903 10.609l2.257-2.687 25.566 8.537s1.76 3.317 1.034 5.127c-.726 1.811-3.633 3.24-3.633 3.24l-25.87-10.42.646-3.797z"/></g><g stroke="#F9F9F9" transform="translate(26 12)"><animateTransform attributeName="transform" attributeType="XML" type="rotate" from="-5 70 60" to="15 70 60" dur="1s" begin="1s" values="-5 70 60; 15 70 60; -5 70 60" keyTimes="0; 0.65; 1" repeatCount="indefinite" fill="freeze"/><path d="M31.916 15.754s3.217 1.308 5.079-2.724c1.86-4.032-1.036-6.491-1.036-6.491L21.014.667S16.129-1.66 14.33 3.65c-1.8 5.31 1.08 5.842 1.08 5.842l16.506 6.26z"/><path d="M16.259 9.302l14.698 6.336-9.591 23.66-14.42-6.092zM1.74 37.106c2.121-5.248 4.13-3.995 4.13-3.995l17.01 6.996s1.415 1.905 0 5.323c-1.415 3.42-3.993 4.936-3.993 4.936L1.739 43.31s-2.121-.957 0-6.205z"/><path d="M27.204 25.335l-1.613 3.37 24.289 9.729 1.865-4.735zm23.903 10.609l2.257-2.687 25.566 8.537s1.76 3.317 1.034 5.127c-.726 1.811-3.633 3.24-3.633 3.24l-25.87-10.42.646-3.797z"/></g></g></svg>
